X: 93
T:Croppies' March
T:Freedom for Ireland; Heather on the Hill, Lark's Neck, Ireland Forever
N: page 31
N: heptatonic
M:2/4
L:1/8
R:polka
K:G
Q:1/4=60
E|"G"D>E DB,|DE G>A|"D"Bd AB/2A/2|"C"GE EG/2E/2|\
"G"D>E  DB,|"D7"DE "Em"G>A|"G"Bd "D"AB/2A/2| "G"G2 G:|
G| "G"Bd dB|"C"ce ed/c/|"G"Bd "D" AB/2A/2|"Em"GE Ed|\
"G"Bd dB|"C"ce ef|"Em"ge "D" f/e/d|"Em"e2 e|
f| "C"ge "D" fd|"Em"e/f/e/d/ "D"B>A|"C"Bd "D"AB/2A/2|"Em"GE EG|\
"G"D>E DB,|"D7"DE "Em"G>A|"G"Bd "D"AB/2A/2|"G"G2 G||
